X:0459
T:Ditto.
T:For Violin or Clarinet
N:Ardkinlass's delight 2 Setts [title in index]
M:C|
L:1/8
Q:1/2=76
I: :: ::
Z:Jack Campin * www.campin.me.uk * 2009
K:Bb
B,2|D2F2  G2 B2| c2  d2  f3     g| f2  gf  (gf)(dB)|(B/c/d) c2- c2
B,2|D2F2  G2 B2| c2  d2  g/a/b g2|(fg)(fd)  c3   B |(B/c/d) B2  B2::
f2 |d2f2 (ga)b2|(fg)(fd) c3     B|(dB)(df) (gf)(dB)| B/c/d  c4
B2 |G2B2  D2 F2| G2  B2  g/a/b g2|(fg)(fd) Tc3   B |(B/c/d) B2  B2:|

